**harm	**harte	**silbe	**rhyme	**timestamp	**phrase	**leadinstrument	**kern
*M4/4	*M4/4	*	*	*	*	*	*
*	*	*	*	*	*	*	*
*	*	*	*	*	*	*	*
*A:	*A:	*	*	*	*	*	*A:
*	*	*	*	*	*	*	*
*	*	*	*	*	*	*	*
1r;	N	.	.	0	.	r	1r;
=1	=1	=1	=1	=1	=1	=1	=1
*>Letter>A	*>Letter>A	*>Letter>A	*>Letter>A	*>Letter>A	*>Letter>A	*>Letter>A	*>Letter>A
*>Label>Intro	*>Label>Intro	*>Label>Intro	*>Label>Intro	*>Label>Intro	*>Label>Intro	*>Label>Intro	*>Label>Intro
1I	A:maj	.	.	0.05	newline	guitar	1A 1cc# 1ee
=2	=2	=2	=2	=2	=2	=2	=2
1I	A:maj	.	.	2.751	.	guitar	1A 1cc# 1ee
=3	=3	=3	=3	=3	=3	=3	=3
1I	A:maj	.	.	5.452	.	guitar	1A 1cc# 1ee
=4	=4	=4	=4	=4	=4	=4	=4
1I	A:maj	.	.	8.153	.	guitar	1A 1cc# 1ee
=5	=5	=5	=5	=5	=5	=5	=5
1I	A:maj	.	.	10.854	.	guitar	1A 1cc# 1ee
=6	=6	=6	=6	=6	=6	=6	=6
1I	A:maj	.	.	13.555	.	guitar	1A 1cc# 1ee
=7	=7	=7	=7	=7	=7	=7	=7
1I	A:maj	.	.	16.256	.	guitar	1A 1cc# 1ee
=8	=8	=8	=8	=8	=8	=8	=8
1I	A:maj	.	.	18.957	.	guitar	1A 1cc# 1ee
=9	=9	=9	=9	=9	=9	=9	=9
1I	A:maj	.	.	21.658	.	guitar	1A 1cc# 1ee
=10	=10	=10	=10	=10	=10	=10	=10
1I	A:maj	.	.	24.359	.	guitar	1A 1cc# 1ee
=11	=11	=11	=11	=11	=11	=11	=11
1I	A:maj	.	.	27.06	.	guitar	1A 1cc# 1ee
=12	=12	=12	=12	=12	=12	=12	=12
1I	A:maj	.	.	.	.	guitar	1A 1cc# 1ee
=13	=13	=13	=13	=13	=13	=13	=13
*>Letter>A	*>Letter>A	*>Letter>A	*>Letter>A	*>Letter>A	*>Letter>A	*>Letter>A	*>Letter>A
*>Label>Verse	*>Label>Verse	*>Label>Verse	*>Label>Verse	*>Label>Verse	*>Label>Verse	*>Label>Verse	*>Label>Verse
1I	A:maj	I	.	43.266	newline	voice	1A 1cc# 1ee
.	.	know	.	.	.	.	.
.	.	a	.	.	.	.	.
.	.	cat	.	.	.	.	.
.	.	.	.	.	.	.	.
.	.	named	.	.	.	.	.
.	.	Way-	.	.	.	.	.
.	.	-Out	.	.	.	.	.
.	.	Wi-	(A	.	.	.	.
.	.	-llie	a)	.	.	.	.
=14	=14	=14	=14	=14	=14	=14	=14
1I	A:maj	_	.	.	.	voice	1A 1cc# 1ee
.	.	.	.	.	.	.	.
.	.	.	.	.	.	.	.
.	.	Got	.	.	.	.	.
.	.	a	.	.	.	.	.
=15	=15	=15	=15	=15	=15	=15	=15
1I	A:maj	cool	.	.	.	voice	1A 1cc# 1ee
.	.	lit-	.	.	.	.	.
.	.	-tle	.	.	.	.	.
.	.	chick	.	.	.	.	.
.	.	named	.	.	.	.	.
.	.	Roc-	.	.	.	.	.
.	.	-king	.	.	.	.	.
.	.	Mil-	(A	.	.	.	.
.	.	-lie	a)	.	.	.	.
=16	=16	=16	=16	=16	=16	=16	=16
1I	A:maj	_	.	.	.	voice	1A 1cc# 1ee
.	.	.	.	.	.	.	.
.	.	.	.	.	.	.	.
.	.	He	.	.	.	.	.
.	.	can	.	.	.	.	.
=17	=17	=17	=17	=17	=17	=17	=17
1IV	D:maj	walk	.	53.948	newline	voice	1D 1f# 1a
.	.	and	.	.	.	.	.
.	.	stroll	.	.	.	.	.
.	.	and	.	.	.	.	.
.	.	Su-	.	.	.	.	.
.	.	-sie	.	.	.	.	.
.	.	Q	B	.	.	.	.
.	.	_	.	.	.	.	.
=18	=18	=18	=18	=18	=18	=18	=18
2.IV	D:maj	.	.	.	.	voice	2.D 2.f# 2.a
.	.	.	.	.	.	.	.
4-III	C:5	.	.	.	.	voice	4C 4e 4g
.	.	.	.	.	.	.	.
.	.	And	.	.	.	.	.
=19	=19	=19	=19	=19	=19	=19	=19
1I	A:maj	do	.	.	.	voice	1A 1cc# 1ee
.	.	that	.	.	.	.	.
.	.	cra-	.	.	.	.	.
.	.	-zy	.	.	.	.	.
.	.	hand	.	.	.	.	.
.	.	_	.	.	.	.	.
.	.	jive,	.	.	.	.	.
.	.	too	B	.	.	.	.
=20	=20	=20	=20	=20	=20	=20	=20
1I	A:maj	_	.	.	.	voice	1A 1cc# 1ee
.	.	.	.	.	.	.	.
.	.	.	.	.	.	.	.
=21	=21	=21	=21	=21	=21	=21	=21
*>Letter>A	*>Letter>A	*>Letter>A	*>Letter>A	*>Letter>A	*>Letter>A	*>Letter>A	*>Letter>A
*>Label>Verse	*>Label>Verse	*>Label>Verse	*>Label>Verse	*>Label>Verse	*>Label>Verse	*>Label>Verse	*>Label>Verse
1I	A:maj	Ma-	.	64.739	newline	voice	1A 1cc# 1ee
.	.	-ma,	.	.	.	.	.
.	.	ma-	.	.	.	.	.
.	.	_	.	.	.	.	.
.	.	-ma,	.	.	.	.	.
.	.	look	.	.	.	.	.
.	.	at	.	.	.	.	.
.	.	Un-	.	.	.	.	.
.	.	-cle	.	.	.	.	.
.	.	Joe	C	.	.	.	.
=22	=22	=22	=22	=22	=22	=22	=22
1I	A:maj	_	.	.	.	voice	1A 1cc# 1ee
.	.	.	.	.	.	.	.
.	.	.	.	.	.	.	.
=23	=23	=23	=23	=23	=23	=23	=23
1I	A:maj	Do-	.	.	.	voice	1A 1cc# 1ee
.	.	-ing	.	.	.	.	.
.	.	the	.	.	.	.	.
.	.	hand	.	.	.	.	.
.	.	_	.	.	.	.	.
.	.	jive	.	.	.	.	.
.	.	with	.	.	.	.	.
.	.	sis-	.	.	.	.	.
.	.	-ter	.	.	.	.	.
.	.	Flo	C	.	.	.	.
=24	=24	=24	=24	=24	=24	=24	=24
1I	A:maj	.	.	.	.	voice	1A 1cc# 1ee
=25	=25	=25	=25	=25	=25	=25	=25
1IV	D:maj	Grand-	.	75.496	newline	voice	1D 1f# 1a
.	.	-ma	.	.	.	.	.
.	.	gave	.	.	.	.	.
.	.	ba-	.	.	.	.	.
.	.	-by	.	.	.	.	.
.	.	sis-	.	.	.	.	.
.	.	_	.	.	.	.	.
.	.	-ter	.	.	.	.	.
.	.	a	.	.	.	.	.
.	.	dime	D	.	.	.	.
.	.	_	.	.	.	.	.
.	.	_	.	.	.	.	.
=26	=26	=26	=26	=26	=26	=26	=26
2.IV	D:maj	_	.	.	.	voice	2.D 2.f# 2.a
.	.	.	.	.	.	.	.
4-III	C:5	.	.	.	.	voice	4C 4e 4g
.	.	.	.	.	.	.	.
.	.	Said,	.	.	.	.	.
=27	=27	=27	=27	=27	=27	=27	=27
1I	A:maj	Do	.	.	.	voice	1A 1cc# 1ee
.	.	that	.	.	.	.	.
.	.	hand	.	.	.	.	.
.	.	jive	.	.	.	.	.
.	.	one	.	.	.	.	.
.	.	more	.	.	.	.	.
.	.	time	D	.	.	.	.
=28	=28	=28	=28	=28	=28	=28	=28
1I	A:maj	_	.	.	.	voice	1A 1cc# 1ee
.	.	.	.	.	.	.	.
.	.	.	.	.	.	.	.
.	.	Hand	.	.	.	.	.
=29	=29	=29	=29	=29	=29	=29	=29
*>Letter>B	*>Letter>B	*>Letter>B	*>Letter>B	*>Letter>B	*>Letter>B	*>Letter>B	*>Letter>B
*>Label>Chorus	*>Label>Chorus	*>Label>Chorus	*>Label>Chorus	*>Label>Chorus	*>Label>Chorus	*>Label>Chorus	*>Label>Chorus
1IV	D:maj	jive	.	86.254	newline	voice	1D 1f# 1a
.	.	.	.	.	.	.	.
.	.	.	.	.	.	.	.
.	.	hand	.	.	.	.	.
=30	=30	=30	=30	=30	=30	=30	=30
1I	A:maj	jive	.	.	.	voice	1A 1cc# 1ee
.	.	.	.	.	.	.	.
.	.	.	.	.	.	.	.
.	.	hand	.	.	.	.	.
=31	=31	=31	=31	=31	=31	=31	=31
1V7	E:7	jive	.	.	.	voice	1E 1g# 1b 1dd
.	.	.	.	.	.	.	.
.	.	Do	.	.	.	.	.
.	.	that	.	.	.	.	.
.	.	cra-	.	.	.	.	.
.	.	-zy	.	.	.	.	.
.	.	hand	.	.	.	.	.
=32	=32	=32	=32	=32	=32	=32	=32
*>Letter>A	*>Letter>A	*>Letter>A	*>Letter>A	*>Letter>A	*>Letter>A	*>Letter>A	*>Letter>A
*>Label>Interlude	*>Label>Interlude	*>Label>Interlude	*>Label>Interlude	*>Label>Interlude	*>Label>Interlude	*>Label>Interlude	*>Label>Interlude
1I	A:maj	jive	.	94.42	->newline	voice	1A 1cc# 1ee
.	.	.	.	.	.	.	.
.	.	.	.	.	.	.	.
=33	=33	=33	=33	=33	=33	=33	=33
1I	A:maj	.	.	.	.	voice	1A 1cc# 1ee
=34	=34	=34	=34	=34	=34	=34	=34
*>Letter>A	*>Letter>A	*>Letter>A	*>Letter>A	*>Letter>A	*>Letter>A	*>Letter>A	*>Letter>A
*>Label>Verse	*>Label>Verse	*>Label>Verse	*>Label>Verse	*>Label>Verse	*>Label>Verse	*>Label>Verse	*>Label>Verse
1I	A:maj	Doc-	.	107.722	newline	voice	1A 1cc# 1ee
.	.	-tor	.	.	.	.	.
.	.	and	.	.	.	.	.
.	.	a	.	.	.	.	.
.	.	law-	.	.	.	.	.
.	.	-yer	.	.	.	.	.
.	.	and	.	.	.	.	.
.	.	an	.	.	.	.	.
.	.	In-	.	.	.	.	.
.	.	-dian	.	.	.	.	.
.	.	chief	E	.	.	.	.
=35	=35	=35	=35	=35	=35	=35	=35
1I	A:maj	.	.	.	.	voice	1A 1cc# 1ee
=36	=36	=36	=36	=36	=36	=36	=36
1I	A:maj	They	.	.	.	voice	1A 1cc# 1ee
.	.	all	.	.	.	.	.
.	.	dig	.	.	.	.	.
.	.	_	.	.	.	.	.
.	.	that	.	.	.	.	.
.	.	cra-	.	.	.	.	.
.	.	-zy	.	.	.	.	.
.	.	beat	E	.	.	.	.
.	.	_	.	.	.	.	.
=37	=37	=37	=37	=37	=37	=37	=37
1I	A:maj	_	.	.	.	voice	1A 1cc# 1ee
.	.	.	.	.	.	.	.
.	.	.	.	.	.	.	.
=38	=38	=38	=38	=38	=38	=38	=38
1IV	D:maj	Way-	.	118.521	newline	voice	1D 1f# 1a
.	.	-Out	.	.	.	.	.
.	.	Wi-	.	.	.	.	.
.	.	_	.	.	.	.	.
.	.	-llie	.	.	.	.	.
.	.	gave	.	.	.	.	.
.	.	them	.	.	.	.	.
.	.	all	.	.	.	.	.
.	.	a	.	.	.	.	.
.	.	treat	E	.	.	.	.
.	.	_	.	.	.	.	.
=39	=39	=39	=39	=39	=39	=39	=39
2.IV	D:maj	.	.	.	.	voice	2.D 2.f# 2.a
.	.	.	.	.	.	.	.
4-III	C:5	.	.	.	.	voice	4C 4e 4g
.	.	When	.	.	.	.	.
.	.	he	.	.	.	.	.
=40	=40	=40	=40	=40	=40	=40	=40
1I	A:maj	did	.	.	.	voice	1A 1cc# 1ee
.	.	that	.	.	.	.	.
.	.	hand	.	.	.	.	.
.	.	jive	.	.	.	.	.
.	.	with	.	.	.	.	.
.	.	his	.	.	.	.	.
.	.	feet	E	.	.	.	.
=41	=41	=41	=41	=41	=41	=41	=41
1I	A:maj	_	.	.	.	voice	1A 1cc# 1ee
.	.	.	.	.	.	.	.
.	.	Hand	.	.	.	.	.
=42	=42	=42	=42	=42	=42	=42	=42
*>Letter>B	*>Letter>B	*>Letter>B	*>Letter>B	*>Letter>B	*>Letter>B	*>Letter>B	*>Letter>B
*>Label>Chorus	*>Label>Chorus	*>Label>Chorus	*>Label>Chorus	*>Label>Chorus	*>Label>Chorus	*>Label>Chorus	*>Label>Chorus
1IV	D:maj	jive	.	129.291	newline	voice	1D 1f# 1a
.	.	.	.	.	.	.	.
.	.	.	.	.	.	.	.
.	.	hand	.	.	.	.	.
=43	=43	=43	=43	=43	=43	=43	=43
1I	A:maj	jive	.	.	.	voice	1A 1cc# 1ee
.	.	.	.	.	.	.	.
.	.	.	.	.	.	.	.
.	.	hand	.	.	.	.	.
=44	=44	=44	=44	=44	=44	=44	=44
1V7	E:7	jive	.	.	.	voice	1E 1g# 1b 1dd
.	.	.	.	.	.	.	.
.	.	Do	.	.	.	.	.
.	.	that	.	.	.	.	.
.	.	cra-	.	.	.	.	.
.	.	-zy	.	.	.	.	.
.	.	hand	.	.	.	.	.
=45	=45	=45	=45	=45	=45	=45	=45
*>Letter>A	*>Letter>A	*>Letter>A	*>Letter>A	*>Letter>A	*>Letter>A	*>Letter>A	*>Letter>A
*>Label>Interlude	*>Label>Interlude	*>Label>Interlude	*>Label>Interlude	*>Label>Interlude	*>Label>Interlude	*>Label>Interlude	*>Label>Interlude
1I	A:maj	jive	.	137.483	->newline	guitar	1A 1cc# 1ee
.	.	.	.	.	.	.	.
.	.	.	.	.	.	.	.
=46	=46	=46	=46	=46	=46	=46	=46
1I	A:maj	.	.	.	.	guitar	1A 1cc# 1ee
=47	=47	=47	=47	=47	=47	=47	=47
1I	A:maj	.	.	.	.	guitar	1A 1cc# 1ee
=48	=48	=48	=48	=48	=48	=48	=48
1I	A:maj	.	.	.	.	guitar	1A 1cc# 1ee
=49	=49	=49	=49	=49	=49	=49	=49
1I	A:maj	.	.	.	.	guitar	1A 1cc# 1ee
=50	=50	=50	=50	=50	=50	=50	=50
1I	A:maj	.	.	.	.	guitar	1A 1cc# 1ee
=51	=51	=51	=51	=51	=51	=51	=51
*>Letter>A	*>Letter>A	*>Letter>A	*>Letter>A	*>Letter>A	*>Letter>A	*>Letter>A	*>Letter>A
*>Label>Verse	*>Label>Verse	*>Label>Verse	*>Label>Verse	*>Label>Verse	*>Label>Verse	*>Label>Verse	*>Label>Verse
1I	A:maj	Wil-	(A	230.524	newline	voice	1A 1cc# 1ee
.	.	-lie	a)	.	.	.	.
.	.	and	.	.	.	.	.
.	.	Mil-	(A	.	.	.	.
.	.	_	.	.	.	.	.
.	.	-lie	a)	.	.	.	.
.	.	got	.	.	.	.	.
.	.	mar-	.	.	.	.	.
.	.	-ried	.	.	.	.	.
.	.	last	.	.	.	.	.
.	.	_	.	.	.	.	.
.	.	fall	F	.	.	.	.
=52	=52	=52	=52	=52	=52	=52	=52
1I	A:maj	_	.	.	.	voice	1A 1cc# 1ee
.	.	.	.	.	.	.	.
.	.	.	.	.	.	.	.
.	.	They	.	.	.	.	.
.	.	had	.	.	.	.	.
.	.	a	.	.	.	.	.
=53	=53	=53	=53	=53	=53	=53	=53
1I	A:maj	lit-	.	.	.	voice	1A 1cc# 1ee
.	.	-tle	.	.	.	.	.
.	.	Wil-	.	.	.	.	.
.	.	-lie	.	.	.	.	.
.	.	ju-	.	.	.	.	.
.	.	-nior	.	.	.	.	.
.	.	and	.	.	.	.	.
.	.	that	.	.	.	.	.
.	.	ain't	.	.	.	.	.
.	.	all	F	.	.	.	.
.	.	_	.	.	.	.	.
=54	=54	=54	=54	=54	=54	=54	=54
1I	A:maj	.	.	.	.	voice	1A 1cc# 1ee
.	.	.	.	.	.	.	.
.	.	.	.	.	.	.	.
.	.	Well,	.	.	.	.	.
.	.	the	.	.	.	.	.
=55	=55	=55	=55	=55	=55	=55	=55
1IV	D:maj	kids	.	241.282	newline	voice	1D 1f# 1a
.	.	got	.	.	.	.	.
.	.	cra-	.	.	.	.	.
.	.	-zy	.	.	.	.	.
.	.	and	.	.	.	.	.
.	.	it's	.	.	.	.	.
.	.	plain	.	.	.	.	.
.	.	to	.	.	.	.	.
.	.	see	E	.	.	.	.
.	.	_	.	.	.	.	.
=56	=56	=56	=56	=56	=56	=56	=56
2.IV	D:maj	.	.	.	.	voice	2.D 2.f# 2.a
.	.	.	.	.	.	.	.
4-III	C:5	.	.	.	.	voice	4C 4e 4g
.	.	.	.	.	.	.	.
.	.	Uh	.	.	.	.	.
=57	=57	=57	=57	=57	=57	=57	=57
1I	A:maj	Do-	.	.	.	voice	1A 1cc# 1ee
.	.	-ing	.	.	.	.	.
.	.	the	.	.	.	.	.
.	.	hand	.	.	.	.	.
.	.	_	.	.	.	.	.
.	.	jive	.	.	.	.	.
.	.	on	.	.	.	.	.
.	.	T.-	E	.	.	.	.
.	.	-V.	E	.	.	.	.
=58	=58	=58	=58	=58	=58	=58	=58
1I	A:maj	.	.	.	.	voice	1A 1cc# 1ee
.	.	.	.	.	.	.	.
.	.	Hand	.	.	.	.	.
=59	=59	=59	=59	=59	=59	=59	=59
*>Letter>B	*>Letter>B	*>Letter>B	*>Letter>B	*>Letter>B	*>Letter>B	*>Letter>B	*>Letter>B
*>Label>Chorus	*>Label>Chorus	*>Label>Chorus	*>Label>Chorus	*>Label>Chorus	*>Label>Chorus	*>Label>Chorus	*>Label>Chorus
1IV	D:maj	jive	.	252.106	newline	voice	1D 1f# 1a
.	.	.	.	.	.	.	.
.	.	.	.	.	.	.	.
.	.	hand	.	.	.	.	.
=60	=60	=60	=60	=60	=60	=60	=60
1I	A:maj	jive	.	.	.	voice	1A 1cc# 1ee
.	.	.	.	.	.	.	.
.	.	.	.	.	.	.	.
.	.	hand	.	.	.	.	.
=61	=61	=61	=61	=61	=61	=61	=61
1V7	E:7	jive	.	.	.	voice	1E 1g# 1b 1dd
.	.	.	.	.	.	.	.
.	.	Do	.	.	.	.	.
.	.	that	.	.	.	.	.
.	.	cra-	.	.	.	.	.
.	.	-zy	.	.	.	.	.
.	.	hand	.	.	.	.	.
=62	=62	=62	=62	=62	=62	=62	=62
*>Letter>A	*>Letter>A	*>Letter>A	*>Letter>A	*>Letter>A	*>Letter>A	*>Letter>A	*>Letter>A
*>Label>Outro	*>Label>Outro	*>Label>Outro	*>Label>Outro	*>Label>Outro	*>Label>Outro	*>Label>Outro	*>Label>Outro
1I	A:maj	jive	.	260.264	->newline	guitar	1A 1cc# 1ee
.	.	.	.	.	.	.	.
.	.	Hey	.	.	.	.	.
.	.	hey	.	.	.	.	.
.	.	_	.	.	.	.	.
.	.	_	.	.	.	.	.
=63	=63	=63	=63	=63	=63	=63	=63
1I	A:maj	.	.	.	.	guitar	1A 1cc# 1ee
=64	=64	=64	=64	=64	=64	=64	=64
1I	A:maj	.	.	.	.	guitar	1A 1cc# 1ee
=65	=65	=65	=65	=65	=65	=65	=65
1I	A:maj	.	.	.	.	guitar	1A 1cc# 1ee
=66	=66	=66	=66	=66	=66	=66	=66
1I	A:maj	.	.	.	.	guitar	1A 1cc# 1ee
=67	=67	=67	=67	=67	=67	=67	=67
1I	A:maj	.	.	.	.	guitar	1A 1cc# 1ee
=68	=68	=68	=68	=68	=68	=68	=68
1I	A:maj	.	.	.	.	guitar	1A 1cc# 1ee
=69	=69	=69	=69	=69	=69	=69	=69
1I	A:maj	.	.	.	.	guitar	1A 1cc# 1ee
=70	=70	=70	=70	=70	=70	=70	=70
1I	A:maj	.	.	.	.	guitar	1A 1cc# 1ee
=71	=71	=71	=71	=71	=71	=71	=71
1I	A:maj	.	.	.	.	guitar	1A 1cc# 1ee
=72	=72	=72	=72	=72	=72	=72	=72
1I	A:maj	.	.	.	.	guitar	1A 1cc# 1ee
=73	=73	=73	=73	=73	=73	=73	=73
1I	A:maj	.	.	.	.	guitar	1A 1cc# 1ee
=74	=74	=74	=74	=74	=74	=74	=74
1I	A:maj	.	.	.	.	guitar	1A 1cc# 1ee
=75	=75	=75	=75	=75	=75	=75	=75
1I	A:maj	.	.	.	.	guitar	1A 1cc# 1ee
=76	=76	=76	=76	=76	=76	=76	=76
1I	A:maj	.	.	.	.	guitar	1A 1cc# 1ee
=77	=77	=77	=77	=77	=77	=77	=77
1I	A:maj	.	.	.	.	guitar	1A 1cc# 1ee
=78	=78	=78	=78	=78	=78	=78	=78
1I	A:maj	.	.	.	.	guitar	1A 1cc# 1ee
1r;	N	.	.	.	.	r	1r;
*-	*-	*-	*-	*-	*-	*-	*-
!!!BillboardChartDate: 1974/12/21
!!!BillboardPeak: 26
!!!BillboardWeeksOnChart: 9
!!!COC: Eric Clapton
!!!EMD: Mcgill transcriptions is way too long album version. Cut it down and removed timestamps. -Nat
!!!ENC: Nathaniel Condit-Schultz
!!!EST: Awating manual error checking and editing.
!!!OTL: Willie And The Hand Jive
!!!RDF**harte: Chris Harte's syntax, used by MIREX
!!!RDF**harmony: **recip + pitch class of root + harmonic quality
!!!RDF**leadinstrument: original McGill primary instrumentation annotation
!!!RDF**phrase: newline = linebreak in original McGill transcription
!!!RDF**timestamp: McGill audio timestamp in seconds
!!!RDT: 2017/01/12/
!!!SampleActualRank: 36
!!!SampleID#: 0194
!!!SampleTargetRank: 38
!!!MBID: 4e019b3f-9667-4a42-a9ec-29a3e76a6d11
